!!!SOCIAL_FUNCTION:	dream songs
!!!PDT:	1913
!!!OTL: No_147_One_Bird.krn
!!!REG: Great_Lakes
!!!LANG: Non-Tone
!!!LING_GROUP: Algonquin
**kern	**kern
*staff2	*staff1
=1-	=1-
*clefF4	*clefF4
*k[b-e-a-d-g-c-]	*k[b-e-a-d-g-c-]
*M2/4	*M2/4
8GG-/L	8.e-\L
8GG-/J	.
.	16e-\Jk
8GG-/L	8f\L
8GG-/J	8e-\J
=2	=2
2r	2e-\
=3||	=3||
*M3/4	*M3/4
2.r	8e-\L
.	8d-\J
.	4d-\
.	4B-\
=4||	=4||
*M2/4	*M2/4
2r	4d-\
.	8e-\L
.	8d-\J
=5	=5
2r	8.B-\L
.	16B-\Jk
.	[4B-\
=6	=6
2r	2B-\]
=7	=7
2r	8.B-\L
.	16d-\Jk
.	8d-\L
.	8B-\J
=8	=8
2r	2B-\
=9||	=9||
*M3/4	*M3/4
2.r	8B-\L
.	8A-\J
.	4G-\
.	4E-\
=10||	=10||
*M2/4	*M2/4
2r	4G-\
.	8A-\L
.	8G-\J
=11	=11
2r	8.E-\L
.	16E-\Jk
.	[4E-\
=12	=12
2r	2E-\]
=13	=13
2r	8.E-\L
.	16G-\Jk
.	8G-\L
.	8E-\J
=14	=14
2r	2E-\
=15||	=15||
*M3/4	*M3/4
2.r	8E-\L
.	8D-\J
.	4D-\
.	4BB-/
=16||	=16||
*M2/4	*M2/4
2r	4D-\
.	8E-\L
.	8D-\J
=17	=17
2r	8.BB-/L
.	16BB-/Jk
.	[4BB-/
=18	=18
2r	2BB-/]
=19	=19
2r	8.B-\L
.	16d-\Jk
.	8d-\L
.	8B-\J
=20	=20
2r	2B-\
=21||	=21||
*M3/4	*M3/4
2.r	8B-\L
.	8A-\J
.	4G-\
.	4E-\
=22||	=22||
*M2/4	*M2/4
2r	4G-\
.	8A-\L
.	8G-\J
=23	=23
2r	8.E-\L
.	16E-\Jk
.	[4E-\
=24	=24
2r	2E-\]
=25	=25
2r	8.E-\L
.	16G-\Jk
.	8G-\L
.	8E-\J
=26	=26
2r	2E-\
=27||	=27||
*M3/4	*M3/4
2.r	8E-\L
.	8D-\J
.	4D-\
.	4BB-/
=28||	=28||
*M2/4	*M2/4
2r	4D-\
.	8E-\L
.	8D-\J
=29	=29
2r	8.BB-/L
.	16BB-/Jk
.	[4BB-/
=30	=30
2r	2BB-/]
==	==
*-	*-
